X: 35932
T: Santa Claus Is Coming...Too Drunk
R: reel
M: 4/4
K: Dmajor
|:FE|DF~F2 EFGE|FD~D2 A2GA|BG~G2 EGBG|AF~F2 DFAG|
~F3G DEFD|FD~D2 A2GA|BG~G2 EGAG|FDEF D2:|
|:FG|AFDF BGdB|AF~F2 d2cB|GE~E2 BEAG|FD~D2 A2FG|
AFDF ~B3G|AF~F2 d2cB|GE~E2 BEAG|FDEF D2:|

